X:53226
F:http://www.vwml.org/record/HAM/5/32/26%%VWML:HAM-5-32-26-0
T:Tis not my gold watch
T:'Tis not my gold watch
S:Mrs Marina Russell, Upwey coll. HED Hammond
O:England
A:Dorset
N:Transcribed from HAM-02-237
F:HAM-05-32-26
Z:EFDSS;PJHeadford
M:3/4
L:1/4
Q:1/4=100
K:D
D|EB B|BA G|FA G|FE D|EA A|AG A|Bd c|B2 A|B/ B/ cd|
ec A/ "<("">)"A/ &xxx/c/|dB B|GE D|E>F G|\
B2 A|GE E|E2||xx"<or ends"x|B2 B|AG E|E2
W:[left of title:] Dorian 530 [right of the title:] Mrs Russell [feint:] of Upwey
W:[there is a leader line from bar 14 to 3 extra bars, below the tune, and the text:] or ends W:[below and right of the extra bars:] Words D VII. p.90 [unclear]
W:In the MS, only the note A has ellipses, ABC insists on bracketing the A and c notes. W:The MIDI file HAM-05-32-26.mid has two verses, the second using the variant in bar 10, W:and the alternative ending.
W:
W:Words from HAM-01-689.gif - Hammond's field notes
W:
W:Tis not my gold watch nor my money I value
W:Tis not my gold watch nor my money I crave
W:Five guineas she demanded & the money was granted
W:But all been in vain for she was a maid.
